X: 3168
T: MISS STEWART OF GARTH
Q: "Reel."
R: Reel.
%R: reel
B: James Kerr "Merry Melodies" v.3 p.20 #168
Z: 2016 John Chambers <jc:trillian.mit.edu>
%%slurgraces yes
%%graceslurs yes
M: C
L: 1/8
K: Dm
F |\
D2(DE) FGAF | EcGc ECCE |\
D2(DE) FGAF | Ddfe d3 ::\
f |\
(da)fg (af)df |
egcg ecge |\
[1 (da)fg (af)df | ecge d3 :|\
[2 fde^c defd | =cAGE {FE}D3 |]

%%sep 1 1 500
%%sep 1 1 500

